!!!SOCIAL_FUNCTION:	war songs
!!!PDT:	1913
!!!OTL: No_91_War_Song.krn
!!!REG: Great_Lakes
!!!LANG: Non-Tone
!!!LING_GROUP: Algonquin
**kern	**kern
*staff2	*staff1
*clefF4	*clefF4
*k[b-]	*k[b-]
*M2/4	*M2/4
16r	16d\
=1	=1
12GG^/	16d\LK
.	8.d\J
12r	.
12GG/	.
12GG^/	8.d\L
12r	.
12GG/	.
.	16c\Jk
=2	=2
12GG^/	16c\LK
.	8.c\J
12r	.
12GG/	.
12GG^/	12c\L
12r	12B-\
12GG/	12A\J
=3||	=3||
*M3/4	*M3/4
2.r	8A\L
.	8A\J
.	4..A\
.	16c\
=4||	=4||
*M2/4	*M2/4
2r	8c\L
.	8d\J
.	8.d\L
.	16c\Jk
=5	=5
2r	16c\LK
.	8.A\J
.	12c\L
.	12B-\
.	12A\J
=6||	=6||
*M3/4	*M3/4
2.r	8.A\L
.	16A\Jk
.	4..A\
.	16A\
=7	=7
2.r	2.A\
=8	=8
2.r	16c\LK
.	8.c\J
.	8c\L
.	8d\J
.	8.d\L
.	16c\Jk
=9||	=9||
*M2/4	*M2/4
2r	16c\LK
.	8.A\J
.	8.A\L
.	16G\Jk
=10	=10
2r	16F\LK
.	8.F\J
.	8.F\L
.	16D\Jk
=11||	=11||
*M3/4	*M3/4
2.r	16D\LK
.	8.D\J
.	4D\
.	8.D\L
.	16F\Jk
=12||	=12||
*M2/4	*M2/4
2r	16F\LK
.	8.G\J
.	8.G\L
.	16F\Jk
=13	=13
2r	16D\LK
.	8.D\J
.	8.D/L
.	16C/Jk
=14||	=14||
*M3/4	*M3/4
2.r	16AA/LK
.	8.AA/J
.	4..AA/
.	16D\
=15||	=15||
*M2/4	*M2/4
2r	16D\LK
.	8.D\J
.	8.D/L
.	16C/Jk
=16||	=16||
*M3/4	*M3/4
2.r	16AA/LK
.	8.AA/J
.	12C/L
.	12BB-/
.	12AA/J
.	4AA/
=17||	=17||
*M2/4	*M2/4
2r	4.AA/
.	8AA/
=18	=18
2r	[2AA/
=19	=19
2r	4..AA/]
.	16r
==	==
*-	*-
